material/.icons/material/head-lightbulb.svg

<svg xmlns="http://www.w3.org/2000/svg" viewBox="0 0 24 24"><path d="M13 3C9.23 3 6.19 5.95 6 9.66l-1.92 2.53c-.24.31 0 .81.42.81H6v3c0 1.11.89 2 2 2h1v3h7v-4.69c2.37-1.12 4-3.51 4-6.31 0-3.86-3.12-7-7-7m1 11h-2v-1h2v1m1.6-4.5a3 3 0 01-1.1 1.08V12h-3v-1.42c-1.43-.83-1.93-2.66-1.1-4.08s2.67-1.94 4.1-1.12 1.93 2.67 1.1 4.12z"/></svg>

<?xml version="1.0" encoding="UTF-8"?><!DOCTYPE svg PUBLIC "-//W3C//DTD SVG 1.1//EN" "http://www.w3.org/Graphics/SVG/1.1/DTD/svg11.dtd"><svg xmlns="http://www.w3.org/2000/svg" xmlns:xlink="http://www.w3.org/1999/xlink" version="1.1" id="mdi-head-lightbulb" width="24" height="24" viewBox="0 0 24 24"><path d="M13 3C9.23 3 6.19 5.95 6 9.66L4.08 12.19C3.84 12.5 4.08 13 4.5 13H6V16C6 17.11 6.89 18 8 18H9V21H16V16.31C18.37 15.19 20 12.8 20 10C20 6.14 16.88 3 13 3M14 14H12V13H14V14M15.6 9.5C15.34 9.94 14.96 10.32 14.5 10.58V12H11.5V10.58C10.07 9.75 9.57 7.92 10.4 6.5S13.07 4.56 14.5 5.38 16.43 8.05 15.6 9.5Z" /></svg>
